svgs/solid/badge-dollar.svg

<svg xmlns="http://www.w3.org/2000/svg" viewBox="0 0 512 512"><!--! Font Awesome Pro 6.2.0 by @fontawesome - https://fontawesome.com License - https://fontawesome.com/license (Commercial License) Copyright 2022 Fonticons, Inc. --><path d="M256 0c36.8 0 68.8 20.7 84.9 51.1C373.8 41 411 49 437 75s34 63.3 23.9 96.1C491.3 187.2 512 219.2 512 256s-20.7 68.8-51.1 84.9C471 373.8 463 411 437 437s-63.3 34-96.1 23.9C324.8 491.3 292.8 512 256 512s-68.8-20.7-84.9-51.1C138.2 471 101 463 75 437s-34-63.3-23.9-96.1C20.7 324.8 0 292.8 0 256s20.7-68.8 51.1-84.9C41 138.2 49 101 75 75s63.3-34 96.1-23.9C187.2 20.7 219.2 0 256 0zm21 149.3c0-11.1-9-20.1-20.1-20.1s-20.1 9-20.1 20.1v8.5c-6.7 1.3-13.1 3.2-19 5.9c-16.1 7.3-29.9 20.8-33.3 40.2c-1.9 10.9-.9 21.4 3.6 30.9c4.4 9.3 11.3 15.9 18.5 20.8c12.6 8.5 29.3 13.6 42.4 17.5l0 0 2.3 .7c15.4 4.6 26.3 8.3 33.2 13.3c3 2.2 4.3 4 4.9 5.4c.6 1.3 1.2 3.9 .4 8.7c-.8 4.7-3.5 8.6-10.2 11.4c-7.3 3.1-18.7 4.5-33.2 2.3c-6.9-1.1-19-5.3-29.6-8.9l0 0c-2.4-.8-4.8-1.6-6.9-2.3c-10.5-3.5-21.8 2.2-25.3 12.7s2.2 21.8 12.7 25.3c1.4 .5 3.1 1 5 1.7l0 0 0 0c9.3 3.2 23.9 8.2 34.5 10.4v8.9c0 11.1 9 20.1 20.1 20.1s20.1-9 20.1-20.1v-8c6.5-1.1 12.6-2.8 18.4-5.3c16.9-7.2 30.3-21.1 33.8-41.4c1.9-11.2 1.1-21.8-3.1-31.4C322 267 315.2 260 308 254.8c-13.2-9.6-30.8-14.9-44.4-19l-.8-.2c-15.6-4.7-26.7-8.2-33.8-13c-3.1-2.1-4.3-3.7-4.8-4.8c-.4-.9-1.1-2.8-.3-6.9c.5-3.1 2.9-7.2 10.4-10.6c7.6-3.4 19.1-5.2 33.1-3c4.9 .8 20 3.7 24.3 4.9c10.7 2.8 21.6-3.5 24.5-14.2s-3.5-21.6-14.2-24.5c-5.3-1.4-17.9-3.9-25-5.2v-8.8z"/></svg>

<svg xmlns="http://www.w3.org/2000/svg" viewBox="0 0 512 512"><!--! Font Awesome Pro 6.1.2 by @fontawesome - https://fontawesome.com License - https://fontawesome.com/license (Commercial License) Copyright 2022 Fonticons, Inc. --><path d="M256 0C292.8 0 324.8 20.7 340.9 51.1C373.8 40.1 410.1 48.96 437 74.98C463 101 470.1 138.2 460.9 171.1C491.3 187.2 512 219.2 512 256C512 292.8 491.3 324.8 460.9 340.9C471 373.8 463 410.1 437 437C410.1 463 373.8 470.1 340.9 460.9C324.8 491.3 292.8 512 256 512C219.2 512 187.2 491.3 171.1 460.9C138.2 471 101 463 74.98 437C48.96 410.1 41 373.8 51.1 340.9C20.7 324.8 0 292.8 0 256C0 219.2 20.7 187.2 51.1 171.1C40.1 138.2 48.96 101 74.98 74.98C101 48.96 138.2 41 171.1 51.1C187.2 20.7 219.2 0 256 0V0zM276.1 149.3C276.1 138.2 267.1 129.2 256.9 129.2C245.8 129.2 236.8 138.2 236.8 149.3V157.8C230.1 159.1 223.7 161.1 217.8 163.7C201.7 171 187.9 184.5 184.5 203.1C182.6 214.9 183.7 225.4 188.1 234.8C192.5 244.1 199.5 250.8 206.6 255.6C219.2 264.1 235.9 269.2 248.1 273.1L251.3 273.8C266.7 278.5 277.6 282.1 284.5 287.1C287.5 289.3 288.8 291.1 289.4 292.5C290 293.9 290.7 296.4 289.8 301.2C289 305.9 286.3 309.8 279.7 312.6C272.4 315.7 260.1 317.2 246.4 314.9C239.6 313.8 227.4 309.6 216.8 306C214.4 305.2 212.1 304.4 209.9 303.7C199.4 300.2 188.1 305.9 184.6 316.3C181.1 326.8 186.8 338.2 197.2 341.6C198.6 342.1 200.3 342.7 202.3 343.3C211.5 346.5 226.2 351.5 236.8 353.8V362.7C236.8 373.8 245.8 382.8 256.9 382.8C267.1 382.8 276.1 373.8 276.1 362.7V354.7C283.4 353.6 289.6 351.9 295.4 349.4C312.3 342.2 325.7 328.3 329.2 308C331.2 296.9 330.3 286.2 326.1 276.6C321.1 267 315.2 259.1 308 254.8C294.9 245.2 277.2 239.8 263.7 235.8L262.9 235.5C247.3 230.8 236.2 227.4 229.1 222.5C225.1 220.4 224.8 218.8 224.3 217.7C223.9 216.9 223.2 214.1 223.9 210.8C224.5 207.7 226.8 203.6 234.3 200.2C241.9 196.7 253.5 194.9 267.4 197.1C272.3 197.9 287.4 200.8 291.7 201.1C302.4 204.8 313.4 198.5 316.2 187.8C319.1 177.1 312.7 166.2 302 163.3C296.8 161.9 284.2 159.4 276.1 158.2L276.1 149.3z"/></svg>
